X:1
T:Title
%%score { ( 1 3 ) | ( 2 4 ) }
L:1/8
M:3/4
K:Ab
V:1 bass nm="Grand Piano"
V:3 bass 
V:2 bass 
V:4 bass 
V:1
 z2 z2[Q:1/4=100] EE | [CE]2[K:treble] C2 F2 | [A,CE]4 EE | E2 =D2[K:bass] [E,B,_D]2 | %4
 [E,A,C]4[K:treble] EE | [CA]4 [EG]2 | [DF]4 [DF]F | [=DB]4 [DA]2 | [B,DG]4 EE | [CA]4 [Ec]2 | %10
 [CA]4 [CA]A | [DB]4 [Ec]2 | [Fd]4 [A=d]d | e2 z2 z2 | [Gd]4 .E2 | [B,=DF]4 [_DG]2 |[M:2/4] [CA]4 | %17
[M:4/4] EE [CEA]2 [CEA]2 [A,EA]2 | [CE]>[CA] c2 c2 c2 | A>c [Ge]2 [Ae]2 [Ge]2 | %20
[M:9/8] cBA- A [=Dc]2 B3 |[M:4/4] cB [A,CA]2 [CEA]2 AA |[M:9/8] AA[FB]- [FB] [Fc]2 [Fd]3 | %23
[M:4/4] =dd [Ge]2 [_Ge]2 [Fe][F_d] |[M:7/8] [Fc][=EB] [C_EA]2 [B,EG]2 [CEA]- | [CEA]2 z z z z2 |] %26
V:2
 z2 z2 CC | z2 A,2 D2 | A,,4 CC | [E,C]2 B,2 E,,2 | A,,4 CC | A,,2 E,2 A,2 | z2 z2 A,2 | %7
 B,,2 F,2 B,2 | E,4 DD | A,,2 E,2 A,2 | z2 z2 A,2 | D,2 F,2 =A,2 | z2 z2 B,2[K:treble] | %13
 [E,B,]2 B2[K:bass] A,2 | [E,B,]4 z E | B,,4 E,2 |[M:2/4] [A,,E,]4 |[M:4/4] E,E, A,,2 E,2 C,2 | %18
 [A,,A,]>[A,,A,] [A,E]2 [E,A,E]2 [A,E]2 | [A,CE]>[A,CE] [E,B,]2 [A,C]2 [E,B,]2 | %20
[M:9/8] [E,G,E][E,G,E][F,A,=D]- [F,A,D] [B,,A,]2 [E,G,E]3 | %21
[M:4/4] [E,G,E][E,G,=D] A,,2 A,,2 [F,CF][F,CF] |[M:9/8] [F,CF][F,CF][D,D]- [D,D] [C,A,]2 [B,,B,]3 | %23
[M:4/4][K:treble] [B,A][B,A][K:bass] [E,B,]2 [A,C]2 [D,A,][D,A,] |[M:7/8] [D,D][D,D] E,2 E,2 A,,- | %25
 A,,2 z z z z2 |] %26
V:3
 x6 | E,4[K:treble] z2 | x6 | x4[K:bass] x2 | x4[K:treble] x2 | x6 | x6 | x6 | x6 | x6 | x6 | x6 | %12
 x6 | G4 [CAc]2 | x6 | x6 |[M:2/4] x4 |[M:4/4] x8 | x8 | x8 |[M:9/8] x9 |[M:4/4] x8 |[M:9/8] x9 | %23
[M:4/4] x8 |[M:7/8] x7 | x7 |] %26
V:4
 x6 | A,,4 z2 | x6 | x6 | x6 | x6 | D,2 F,2 z D | x6 | x6 | x6 | A,,2 E,2 z C | x6 | %12
 B,,2 F,2 z[K:treble] A | x4[K:bass] x2 | z2 z2 E,2 | x6 |[M:2/4] x4 |[M:4/4] x8 | x8 | x8 | %20
[M:9/8] x9 |[M:4/4] x8 |[M:9/8] x9 |[M:4/4][K:treble] x2[K:bass] x6 |[M:7/8] x7 | x7 |] %26

